T: Neilly O'Boyle's Highland
M: 4/4
L: 1/8
K: Amix
e>a (eaag e3 c | d>cB>A B>cd>f | e2 a>g e>^de>f | g>fg>d B>A :|c>Ac>A d>cd>B | c>Ac>A c>ea>e | c>A (3cBA d>c (3def | e>cA>c (3BcB AB |c2 c>A d2 d>B | c2 c>A (3cde e>f | g>ba>g e2 z>f | g>fg>d B>A A2 ||
